img/Vector_instagramm.svg

<svg width="16" height="15" viewBox="0 0 16 15" fill="none" xmlns="http://www.w3.org/2000/svg">
<path d="M8.1368 3.68162C6.02166 3.68162 4.31558 5.38494 4.31558 7.49666C4.31558 9.60838 6.02166 11.3117 8.1368 11.3117C10.2519 11.3117 11.958 9.60838 11.958 7.49666C11.958 5.38494 10.2519 3.68162 8.1368 3.68162ZM8.1368 9.97693C6.76994 9.97693 5.65251 8.86463 5.65251 7.49666C5.65251 6.12869 6.76661 5.01639 8.1368 5.01639C9.50698 5.01639 10.6211 6.12869 10.6211 7.49666C10.6211 8.86463 9.50366 9.97693 8.1368 9.97693ZM13.0056 3.52557C13.0056 4.02029 12.6065 4.41541 12.1143 4.41541C11.6188 4.41541 11.223 4.01697 11.223 3.52557C11.223 3.03416 11.6221 2.63572 12.1143 2.63572C12.6065 2.63572 13.0056 3.03416 13.0056 3.52557ZM15.5365 4.42869C15.4799 3.2367 15.2072 2.18084 14.3326 1.31092C13.4612 0.440997 12.4037 0.168732 11.2097 0.108966C9.97923 0.0392395 6.29104 0.0392395 5.06053 0.108966C3.86994 0.165411 2.81236 0.437677 1.93771 1.3076C1.06305 2.17752 0.793669 3.23338 0.733807 4.42537C0.663967 5.65389 0.663967 9.33611 0.733807 10.5646C0.790343 11.7566 1.06305 12.8125 1.93771 13.6824C2.81236 14.5523 3.86661 14.8246 5.06053 14.8844C6.29104 14.9541 9.97923 14.9541 11.2097 14.8844C12.4037 14.8279 13.4612 14.5556 14.3326 13.6824C15.2039 12.8125 15.4766 11.7566 15.5365 10.5646C15.6063 9.33611 15.6063 5.65721 15.5365 4.42869ZM13.9468 11.8828C13.6874 12.5336 13.1852 13.0349 12.53 13.2972C11.549 13.6857 9.22097 13.5961 8.1368 13.5961C7.05262 13.5961 4.72131 13.6824 3.74356 13.2972C3.09172 13.0383 2.58954 12.5369 2.32681 11.8828C1.93771 10.9033 2.0275 8.57908 2.0275 7.49666C2.0275 6.41424 1.94103 4.0867 2.32681 3.11053C2.58622 2.45975 3.0884 1.95838 3.74356 1.69608C4.72464 1.3076 7.05262 1.39725 8.1368 1.39725C9.22097 1.39725 11.5523 1.31092 12.53 1.69608C13.1819 1.95506 13.6841 2.45643 13.9468 3.11053C14.3359 4.09002 14.2461 6.41424 14.2461 7.49666C14.2461 8.57908 14.3359 10.9066 13.9468 11.8828Z" fill="white"/>
</svg>

<svg xmlns="http://www.w3.org/2000/svg" width="16" height="15" fill="none"><path fill="#fff" d="M8.137 3.682a3.812 3.812 0 0 0-3.821 3.815 3.812 3.812 0 0 0 3.82 3.815 3.812 3.812 0 0 0 3.822-3.815 3.812 3.812 0 0 0-3.821-3.815Zm0 6.295a2.487 2.487 0 0 1-2.484-2.48 2.485 2.485 0 0 1 4.968 0 2.487 2.487 0 0 1-2.484 2.48Zm4.869-6.451c0 .494-.4.89-.892.89a.89.89 0 1 1 .891-.89Zm2.53.903c-.056-1.192-.329-2.248-1.203-3.118C13.46.44 12.403.169 11.21.109c-1.23-.07-4.919-.07-6.15 0-1.19.056-2.248.329-3.122 1.199-.875.87-1.144 1.925-1.204 3.117-.07 1.229-.07 4.911 0 6.14.056 1.192.33 2.248 1.204 3.117.874.87 1.929 1.143 3.123 1.202 1.23.07 4.918.07 6.149 0 1.194-.056 2.251-.328 3.123-1.202.87-.87 1.144-1.925 1.204-3.117.07-1.229.07-4.908 0-6.136Zm-1.59 7.454a2.513 2.513 0 0 1-1.416 1.414c-.981.389-3.309.3-4.393.3-1.084 0-3.416.085-4.393-.3a2.513 2.513 0 0 1-1.417-1.414c-.39-.98-.3-3.304-.3-4.386 0-1.083-.086-3.41.3-4.386.26-.651.761-1.153 1.417-1.415.98-.388 3.309-.299 4.393-.299 1.084 0 3.415-.086 4.393.3.652.258 1.154.76 1.417 1.414.389.979.3 3.303.3 4.386 0 1.082.089 3.41-.3 4.386Z"/></svg>
